configs/marketplace-logos/0xsplits.svg

<svg xmlns="http://www.w3.org/2000/svg" fill="none" viewBox="0 0 512 512">
  <path fill="#222" d="M0 0h512v512H0z"/>
  <path fill="#fff" d="M100.314 292.537c19.942 0 36.109-16.166 36.109-36.108 0-19.942-16.167-36.108-36.109-36.108s-36.108 16.166-36.108 36.108c0 19.942 16.166 36.108 36.108 36.108Zm83.395-5.416c16.951 0 30.692-13.741 30.692-30.692s-13.741-30.692-30.692-30.692-30.692 13.741-30.692 30.692 13.741 30.692 30.692 30.692Zm83.402-5.416c13.959 0 25.275-11.316 25.275-25.276 0-13.959-11.316-25.276-25.275-25.276-13.96 0-25.276 11.317-25.276 25.276 0 13.96 11.316 25.276 25.276 25.276Zm83.394-5.416c10.968 0 19.86-8.892 19.86-19.86s-8.892-19.86-19.86-19.86-19.859 8.892-19.859 19.86 8.891 19.86 19.859 19.86Zm83.395-5.417c7.976 0 14.443-6.466 14.443-14.443 0-7.977-6.467-14.443-14.443-14.443-7.977 0-14.444 6.466-14.444 14.443 0 7.977 6.467 14.443 14.444 14.443Zm-291.889 88.473c16.951 0 30.693-13.741 30.693-30.692s-13.742-30.692-30.693-30.692c-16.95 0-30.692 13.741-30.692 30.692s13.742 30.692 30.692 30.692Zm83.402-5.416c13.96 0 25.276-11.316 25.276-25.276 0-13.959-11.316-25.276-25.276-25.276-13.959 0-25.276 11.317-25.276 25.276 0 13.96 11.317 25.276 25.276 25.276Zm83.395-5.416c10.968 0 19.859-8.892 19.859-19.86s-8.891-19.86-19.859-19.86c-10.968 0-19.86 8.892-19.86 19.86s8.892 19.86 19.86 19.86Zm83.394-5.417c7.977 0 14.444-6.466 14.444-14.443 0-7.977-6.467-14.443-14.444-14.443-7.976 0-14.443 6.466-14.443 14.443 0 7.977 6.467 14.443 14.443 14.443Zm-208.493 83.05c13.959 0 25.276-11.317 25.276-25.276 0-13.96-11.317-25.276-25.276-25.276-13.96 0-25.276 11.316-25.276 25.276 0 13.959 11.316 25.276 25.276 25.276Zm83.401-5.416c10.969 0 19.86-8.892 19.86-19.86s-8.891-19.86-19.86-19.86c-10.968 0-19.859 8.892-19.859 19.86s8.891 19.86 19.859 19.86Zm83.395-5.417c7.977 0 14.443-6.466 14.443-14.443 0-7.977-6.466-14.443-14.443-14.443-7.977 0-14.443 6.466-14.443 14.443 0 7.977 6.466 14.443 14.443 14.443ZM142.011 214.897c16.951 0 30.693-13.741 30.693-30.692s-13.742-30.692-30.693-30.692c-16.95 0-30.692 13.741-30.692 30.692s13.742 30.692 30.692 30.692Zm83.402-5.416c13.96 0 25.276-11.316 25.276-25.276 0-13.959-11.316-25.276-25.276-25.276-13.959 0-25.276 11.317-25.276 25.276 0 13.96 11.317 25.276 25.276 25.276Zm83.395-5.416c10.968 0 19.859-8.892 19.859-19.86s-8.891-19.86-19.859-19.86c-10.968 0-19.86 8.892-19.86 19.86s8.892 19.86 19.86 19.86Zm83.394-5.417c7.977 0 14.444-6.466 14.444-14.443 0-7.977-6.467-14.443-14.444-14.443-7.976 0-14.443 6.466-14.443 14.443 0 7.977 6.467 14.443 14.443 14.443Zm-208.493-61.391c13.959 0 25.276-11.316 25.276-25.276 0-13.96-11.317-25.276-25.276-25.276-13.96 0-25.276 11.317-25.276 25.276 0 13.96 11.316 25.276 25.276 25.276Zm83.401-5.416c10.969 0 19.86-8.892 19.86-19.86s-8.891-19.86-19.86-19.86c-10.968 0-19.859 8.892-19.859 19.86s8.891 19.86 19.859 19.86Zm83.395-5.417c7.977 0 14.443-6.466 14.443-14.443 0-7.977-6.466-14.443-14.443-14.443-7.977 0-14.443 6.466-14.443 14.443 0 7.977 6.466 14.443 14.443 14.443Z"/>
</svg>

<svg width="512" height="512" viewBox="0 0 512 512" fill="none" xmlns="http://www.w3.org/2000/svg">
<rect width="512" height="512" fill="#222222"/>
<path d="M100.314 292.537C120.256 292.537 136.423 276.371 136.423 256.429C136.423 236.487 120.256 220.321 100.314 220.321C80.3721 220.321 64.2058 236.487 64.2058 256.429C64.2058 276.371 80.3721 292.537 100.314 292.537Z" fill="white"/>
<path d="M183.709 287.121C200.66 287.121 214.401 273.38 214.401 256.429C214.401 239.478 200.66 225.737 183.709 225.737C166.758 225.737 153.017 239.478 153.017 256.429C153.017 273.38 166.758 287.121 183.709 287.121Z" fill="white"/>
<path d="M267.111 281.705C281.07 281.705 292.386 270.389 292.386 256.429C292.386 242.47 281.07 231.153 267.111 231.153C253.151 231.153 241.835 242.47 241.835 256.429C241.835 270.389 253.151 281.705 267.111 281.705Z" fill="white"/>
<path d="M350.505 276.289C361.473 276.289 370.365 267.397 370.365 256.429C370.365 245.461 361.473 236.569 350.505 236.569C339.537 236.569 330.646 245.461 330.646 256.429C330.646 267.397 339.537 276.289 350.505 276.289Z" fill="white"/>
<path d="M433.9 270.872C441.876 270.872 448.343 264.406 448.343 256.429C448.343 248.452 441.876 241.986 433.9 241.986C425.923 241.986 419.456 248.452 419.456 256.429C419.456 264.406 425.923 270.872 433.9 270.872Z" fill="white"/>
<path d="M142.011 359.345C158.962 359.345 172.704 345.604 172.704 328.653C172.704 311.702 158.962 297.961 142.011 297.961C125.061 297.961 111.319 311.702 111.319 328.653C111.319 345.604 125.061 359.345 142.011 359.345Z" fill="white"/>
<path d="M225.413 353.929C239.373 353.929 250.689 342.613 250.689 328.653C250.689 314.694 239.373 303.377 225.413 303.377C211.454 303.377 200.137 314.694 200.137 328.653C200.137 342.613 211.454 353.929 225.413 353.929Z" fill="white"/>
<path d="M308.808 348.513C319.776 348.513 328.667 339.621 328.667 328.653C328.667 317.685 319.776 308.793 308.808 308.793C297.84 308.793 288.948 317.685 288.948 328.653C288.948 339.621 297.84 348.513 308.808 348.513Z" fill="white"/>
<path d="M392.202 343.096C400.179 343.096 406.646 336.63 406.646 328.653C406.646 320.676 400.179 314.21 392.202 314.21C384.226 314.21 377.759 320.676 377.759 328.653C377.759 336.63 384.226 343.096 392.202 343.096Z" fill="white"/>
<path d="M183.709 426.146C197.668 426.146 208.985 414.829 208.985 400.87C208.985 386.91 197.668 375.594 183.709 375.594C169.749 375.594 158.433 386.91 158.433 400.87C158.433 414.829 169.749 426.146 183.709 426.146Z" fill="white"/>
<path d="M267.11 420.73C278.079 420.73 286.97 411.838 286.97 400.87C286.97 389.902 278.079 381.01 267.11 381.01C256.142 381.01 247.251 389.902 247.251 400.87C247.251 411.838 256.142 420.73 267.11 420.73Z" fill="white"/>
<path d="M350.505 415.313C358.482 415.313 364.948 408.847 364.948 400.87C364.948 392.893 358.482 386.427 350.505 386.427C342.528 386.427 336.062 392.893 336.062 400.87C336.062 408.847 342.528 415.313 350.505 415.313Z" fill="white"/>
<path d="M142.011 214.897C158.962 214.897 172.704 201.156 172.704 184.205C172.704 167.254 158.962 153.513 142.011 153.513C125.061 153.513 111.319 167.254 111.319 184.205C111.319 201.156 125.061 214.897 142.011 214.897Z" fill="white"/>
<path d="M225.413 209.481C239.373 209.481 250.689 198.165 250.689 184.205C250.689 170.246 239.373 158.929 225.413 158.929C211.454 158.929 200.137 170.246 200.137 184.205C200.137 198.165 211.454 209.481 225.413 209.481Z" fill="white"/>
<path d="M308.808 204.065C319.776 204.065 328.667 195.173 328.667 184.205C328.667 173.237 319.776 164.345 308.808 164.345C297.84 164.345 288.948 173.237 288.948 184.205C288.948 195.173 297.84 204.065 308.808 204.065Z" fill="white"/>
<path d="M392.202 198.648C400.179 198.648 406.646 192.182 406.646 184.205C406.646 176.228 400.179 169.762 392.202 169.762C384.226 169.762 377.759 176.228 377.759 184.205C377.759 192.182 384.226 198.648 392.202 198.648Z" fill="white"/>
<path d="M183.709 137.257C197.668 137.257 208.985 125.941 208.985 111.981C208.985 98.0216 197.668 86.7052 183.709 86.7052C169.749 86.7052 158.433 98.0216 158.433 111.981C158.433 125.941 169.749 137.257 183.709 137.257Z" fill="white"/>
<path d="M267.11 131.841C278.079 131.841 286.97 122.949 286.97 111.981C286.97 101.013 278.079 92.1215 267.11 92.1215C256.142 92.1215 247.251 101.013 247.251 111.981C247.251 122.949 256.142 131.841 267.11 131.841Z" fill="white"/>
<path d="M350.505 126.424C358.482 126.424 364.948 119.958 364.948 111.981C364.948 104.004 358.482 97.5377 350.505 97.5377C342.528 97.5377 336.062 104.004 336.062 111.981C336.062 119.958 342.528 126.424 350.505 126.424Z" fill="white"/>
</svg>
